X: 10
T: Miss Darbys Waltz
%C: Mr. Gray
%R: waltz
B: Mr. Gray "24 Country Dances for the Year 1803" p.5 #2
S: http://imslp.org/wiki/24_Country_Dances_for_the_Year_1803_(Various)  2013-12-2
Z: 2013 John Chambers <jc:trillian.mit.edu>
M: 3/8
L: 1/16
K: F
(c/B/A/G/) | F2F2F2 | f2f2f2 | f2d2B2 |\
A2F2a2 | g2e2c2 | {d}c2=B2c2 | d2c2=B2 | c4 :|
|:\
(c/d/c/B/) | A2F2_e2 | d2B2 (d/e/d/c/) | =B2G2f2 | e2c2 \
(g/a/g/f/) | e2c2b2 | a2f2c2 | d2g2e2 | f4 :|
% - - - - - - - - - - - - - - - - - - - - - - - - -
%%begintext align
%% 1st Cu: turn 3 with the 1st Lady the same
%% with the 1st Gen: lead down the middle
%% up again right & left.
%%endtext

%%sep 1 1 500
%%sep 1 1 500
